symbols/web/query_stats/materialsymbolsoutlined/query_stats_wght600_40px.svg

<svg xmlns="http://www.w3.org/2000/svg" height="40" width="40"><path d="m4.042 30-3-2.167 8.583-13.666 4.625 5.416L20.5 9.417l5.083 7.625q-.958.166-1.833.5-.875.333-1.708.833l-1.417-2.125-5.833 9.542-4.709-5.459Zm32.291 8.958-5.541-5.541q-.834.541-1.813.812T27 34.5q-3.125 0-5.333-2.208-2.209-2.209-2.209-5.334 0-3.083 2.209-5.291 2.208-2.209 5.333-2.209t5.312 2.209Q34.5 23.875 34.5 27q0 1-.292 1.979-.291.979-.833 1.854l5.583 5.459Zm-9.375-8.125q1.625 0 2.75-1.125T30.833 27q0-1.625-1.125-2.75T27 23.125q-1.625 0-2.75 1.125t-1.125 2.708q0 1.625 1.125 2.75t2.708 1.125Zm3.667-13.208q-.917-.375-1.917-.5t-2-.125l9.25-14.875 3 2.167Z"/></svg>

<svg xmlns="http://www.w3.org/2000/svg" height="40" width="40"><path d="M36.333 38.958 30.792 33.417Q29.958 33.958 28.979 34.229Q28 34.5 27 34.5Q23.875 34.5 21.667 32.292Q19.458 30.083 19.458 26.958Q19.458 23.875 21.667 21.667Q23.875 19.458 27 19.458Q30.125 19.458 32.312 21.667Q34.5 23.875 34.5 27Q34.5 28 34.208 28.979Q33.917 29.958 33.375 30.833L38.958 36.292ZM26.958 30.833Q28.583 30.833 29.708 29.708Q30.833 28.583 30.833 27Q30.833 25.375 29.708 24.25Q28.583 23.125 27 23.125Q25.375 23.125 24.25 24.25Q23.125 25.375 23.125 26.958Q23.125 28.583 24.25 29.708Q25.375 30.833 26.958 30.833ZM4.042 30 1.042 27.833 9.625 14.167 14.25 19.583 20.5 9.417 25.583 17.042Q24.625 17.208 23.75 17.542Q22.875 17.875 22.042 18.375L20.625 16.25L14.792 25.792L10.083 20.333ZM30.625 17.625Q29.708 17.25 28.708 17.125Q27.708 17 26.708 17L35.958 2.125L38.958 4.292Z"/></svg>
